X:165
T: Mahnung der Liebe
N: A0203
O: Europa, Mitteleuropa, Deutschland
N: Minnenbergs Christl. Reuterliedern 1582 No. 3.
R: Romanze, Ballade, Lied
M: 4/2
L: 1/8
K: C
 |  |  |  | C8D4D4 | C4F4D4E4 | F8z4
F4 | D8E8 | F8G4E4- | E4D2C2D8 | C8z8 |
C8D4D4 | C4F4D4E4 | F8z4
F4 | D8E8 | F8G4E4- | E4D2C2D8 | C8z4
F4 | D8E4F4- | F4C8D4- | D4C4_B,8 | A,8z4
F,4 | C8D8 | E8F8 | G6F2E8 | D8z4
F4 | E8D8 | C8z4D4 | D4C4_B,4B,4 | A,8z8 |
F,2G,2A,2_B,2C4C4 | D4F4E4D4 |
D2C2C6B,A,B,4 | C8z8

@@@ Tune index: 165
